Newaita-dark/emblems/48/emblem-unmounted.svg

<svg height="48" viewBox="0 0 48 48" width="48" xmlns="http://www.w3.org/2000/svg"><g fill="none" stroke="#424242" stroke-linecap="round" stroke-linejoin="round"><path d="m412.752251 21.852382c11.707215 0 21.164645 9.45743 21.164645 21.164645 0 11.665553-9.45743 21.164646-21.164645 21.164646-11.707216 0-21.164646-9.499093-21.164646-21.164646 0-11.707215 9.45743-21.164645 21.164646-21.164645zm0 0" stroke-width="82" transform="matrix(.093759 0 0 .093759 0 20.158175)"/><path d="m412.752251-62.847863c11.707215 0 21.164645 9.499093 21.164645 21.164645 0 11.707216-9.45743 21.164646-21.164645 21.164646-11.707216 0-21.164646-9.45743-21.164646-21.164646 0-11.665552 9.45743-21.164645 21.164646-21.164645zm0 0" stroke-width="82" transform="matrix(.093759 0 0 .093759 0 20.158175)"/><path d="m1200.987737 535.381973c-.787327 0-1.417188 0-2.204514 0-3.464237.157465-7.085938.787326-10.392709 1.732118l-520.10784 160.142196c-16.533855 5.038889-28.028821 20.470487-28.028821 37.791668v160.142196h-280.288209c-44.247745 0-79.992365 35.587155-79.992365 79.992366 0 44.247745 35.74462 79.992365 79.992365 79.992365h280.288209v159.98473c0 17.321182 11.494966 32.75278 28.028821 37.949134l520.10784 159.984731c25.509376 7.873264 51.333683-11.337501 51.333683-37.949134v-39.996183h.314931v-159.98473h-.314931v-400.119292h.314931v-159.984731h-.314931v-39.996182c0-21.572745-17.321181-39.208857-38.73646-39.681252zm0 0" stroke-width="309.921265" transform="scale(.0248071)"/></g><path d="m29.792969 13.28125c-.019531 0-.035157 0-.054688 0-.085937.003906-.175781.019531-.257812.042969l-12.902344 3.972656c-.410156.125-.695313.507813-.695313.9375v3.972656h-6.953124c-1.097657 0-1.984376.882813-1.984376 1.984375 0 1.097656.886719 1.984375 1.984376 1.984375h6.953124v3.96875c0 .429688.285157.8125.695313.941407l12.902344 3.96875c.632812.195312 1.273437-.28125 1.273437-.941407v-.992187h.007813v-3.96875h-.007813v-9.925782h.007813v-3.96875h-.007813v-.992187c0-.535156-.429687-.972656-.960937-.984375zm0 0" fill="#fafafa"/><path d="m38.699219 22.207031c1.097656 0 1.984375.886719 1.984375 1.984375 0 1.09375-.886719 1.984375-1.984375 1.984375-1.097657 0-1.984375-.890625-1.984375-1.984375 0-1.097656.886718-1.984375 1.984375-1.984375zm0 0" fill="#fafafa"/><path d="m38.699219 14.265625c1.097656 0 1.984375.890625 1.984375 1.984375 0 1.097656-.886719 1.984375-1.984375 1.984375-1.097657 0-1.984375-.886719-1.984375-1.984375 0-1.09375.886718-1.984375 1.984375-1.984375zm0 0" fill="#fafafa"/><path d="m412.752251 106.510964c11.707215 0 21.164645 9.45743 21.164645 21.164645 0 11.665553-9.45743 21.164646-21.164645 21.164646-11.707216 0-21.164646-9.499093-21.164646-21.164646 0-11.707215 9.45743-21.164645 21.164646-21.164645zm0 0" fill="none" stroke="#424242" stroke-linecap="round" stroke-linejoin="round" stroke-width="82" transform="matrix(.093759 0 0 .093759 0 20.158175)"/><path d="m38.699219 30.144531c1.097656 0 1.984375.886719 1.984375 1.984375 0 1.09375-.886719 1.984375-1.984375 1.984375-1.097657 0-1.984375-.890625-1.984375-1.984375 0-1.097656.886718-1.984375 1.984375-1.984375zm0 0" fill="#fafafa"/></svg>

<?xml version="1.0" encoding="UTF-8"?>
<svg xmlns="http://www.w3.org/2000/svg" xmlns:xlink="http://www.w3.org/1999/xlink" width="48px" height="48px" viewBox="0 0 48 48" version="1.1">
<g id="surface1">
<path style="fill:none;stroke-width:82;stroke-linecap:round;stroke-linejoin:round;stroke:rgb(25.882354%,25.882354%,25.882354%);stroke-opacity:1;stroke-miterlimit:4;" d="M 412.752251 21.852382 C 424.459466 21.852382 433.916896 31.309812 433.916896 43.017027 C 433.916896 54.68258 424.459466 64.181673 412.752251 64.181673 C 401.045035 64.181673 391.587605 54.68258 391.587605 43.017027 C 391.587605 31.309812 401.045035 21.852382 412.752251 21.852382 Z M 412.752251 21.852382 " transform="matrix(0.093759,0,0,0.093759,0,20.158175)"/>
<path style="fill:none;stroke-width:82;stroke-linecap:round;stroke-linejoin:round;stroke:rgb(25.882354%,25.882354%,25.882354%);stroke-opacity:1;stroke-miterlimit:4;" d="M 412.752251 -62.847863 C 424.459466 -62.847863 433.916896 -53.34877 433.916896 -41.683218 C 433.916896 -29.976002 424.459466 -20.518572 412.752251 -20.518572 C 401.045035 -20.518572 391.587605 -29.976002 391.587605 -41.683218 C 391.587605 -53.34877 401.045035 -62.847863 412.752251 -62.847863 Z M 412.752251 -62.847863 " transform="matrix(0.093759,0,0,0.093759,0,20.158175)"/>
<path style="fill:none;stroke-width:309.921265;stroke-linecap:round;stroke-linejoin:round;stroke:rgb(25.882354%,25.882354%,25.882354%);stroke-opacity:1;stroke-miterlimit:4;" d="M 1200.987737 535.381973 C 1200.20041 535.381973 1199.570549 535.381973 1198.783223 535.381973 C 1195.318986 535.539438 1191.697285 536.169299 1188.390514 537.114091 L 668.282674 697.256287 C 651.748819 702.295176 640.253853 717.726774 640.253853 735.047955 L 640.253853 895.190151 L 359.965644 895.190151 C 315.717899 895.190151 279.973279 930.777306 279.973279 975.182517 C 279.973279 1019.430262 315.717899 1055.174882 359.965644 1055.174882 L 640.253853 1055.174882 L 640.253853 1215.159612 C 640.253853 1232.480794 651.748819 1247.912392 668.282674 1253.108746 L 1188.390514 1413.093477 C 1213.89989 1420.966741 1239.724197 1401.755976 1239.724197 1375.144343 L 1239.724197 1335.14816 L 1240.039128 1335.14816 L 1240.039128 1175.16343 L 1239.724197 1175.16343 L 1239.724197 775.044138 L 1240.039128 775.044138 L 1240.039128 615.059407 L 1239.724197 615.059407 L 1239.724197 575.063225 C 1239.724197 553.49048 1222.403016 535.854368 1200.987737 535.381973 Z M 1200.987737 535.381973 " transform="matrix(0.0248071,0,0,0.0248071,0,0)"/>
<path style=" stroke:none;fill-rule:nonzero;fill:rgb(98.039216%,98.039216%,98.039216%);fill-opacity:1;" d="M 29.792969 13.28125 C 29.773438 13.28125 29.757812 13.28125 29.738281 13.28125 C 29.652344 13.285156 29.5625 13.300781 29.480469 13.324219 L 16.578125 17.296875 C 16.167969 17.421875 15.882812 17.804688 15.882812 18.234375 L 15.882812 22.207031 L 8.929688 22.207031 C 7.832031 22.207031 6.945312 23.089844 6.945312 24.191406 C 6.945312 25.289062 7.832031 26.175781 8.929688 26.175781 L 15.882812 26.175781 L 15.882812 30.144531 C 15.882812 30.574219 16.167969 30.957031 16.578125 31.085938 L 29.480469 35.054688 C 30.113281 35.25 30.753906 34.773438 30.753906 34.113281 L 30.753906 33.121094 L 30.761719 33.121094 L 30.761719 29.152344 L 30.753906 29.152344 L 30.753906 19.226562 L 30.761719 19.226562 L 30.761719 15.257812 L 30.753906 15.257812 L 30.753906 14.265625 C 30.753906 13.730469 30.324219 13.292969 29.792969 13.28125 Z M 29.792969 13.28125 "/>
<path style=" stroke:none;fill-rule:nonzero;fill:rgb(98.039216%,98.039216%,98.039216%);fill-opacity:1;" d="M 38.699219 22.207031 C 39.796875 22.207031 40.683594 23.09375 40.683594 24.191406 C 40.683594 25.285156 39.796875 26.175781 38.699219 26.175781 C 37.601562 26.175781 36.714844 25.285156 36.714844 24.191406 C 36.714844 23.09375 37.601562 22.207031 38.699219 22.207031 Z M 38.699219 22.207031 "/>
<path style=" stroke:none;fill-rule:nonzero;fill:rgb(98.039216%,98.039216%,98.039216%);fill-opacity:1;" d="M 38.699219 14.265625 C 39.796875 14.265625 40.683594 15.15625 40.683594 16.25 C 40.683594 17.347656 39.796875 18.234375 38.699219 18.234375 C 37.601562 18.234375 36.714844 17.347656 36.714844 16.25 C 36.714844 15.15625 37.601562 14.265625 38.699219 14.265625 Z M 38.699219 14.265625 "/>
<path style="fill:none;stroke-width:82;stroke-linecap:round;stroke-linejoin:round;stroke:rgb(25.882354%,25.882354%,25.882354%);stroke-opacity:1;stroke-miterlimit:4;" d="M 412.752251 106.510964 C 424.459466 106.510964 433.916896 115.968394 433.916896 127.675609 C 433.916896 139.341162 424.459466 148.840255 412.752251 148.840255 C 401.045035 148.840255 391.587605 139.341162 391.587605 127.675609 C 391.587605 115.968394 401.045035 106.510964 412.752251 106.510964 Z M 412.752251 106.510964 " transform="matrix(0.093759,0,0,0.093759,0,20.158175)"/>
<path style=" stroke:none;fill-rule:nonzero;fill:rgb(98.039216%,98.039216%,98.039216%);fill-opacity:1;" d="M 38.699219 30.144531 C 39.796875 30.144531 40.683594 31.03125 40.683594 32.128906 C 40.683594 33.222656 39.796875 34.113281 38.699219 34.113281 C 37.601562 34.113281 36.714844 33.222656 36.714844 32.128906 C 36.714844 31.03125 37.601562 30.144531 38.699219 30.144531 Z M 38.699219 30.144531 "/>
</g>
</svg>
